X: 1
T: \"Appelbo G\aangl\aat
C: (Trad)
R: march, g\aangl\aat
S: http://www.nyckelharpa.org/archive/written-music/american-allspel-list/ 2022/9/16
Z: 2022 John Chambers <jc:trillian.mit.edu>
M: 2/4
L: 1/16
Q: 1/4=105
K: G
|: d2 |\
"G"G2GD G2B2 | d4 d2Bc | "G"d2dB d2de | "Am"(cd)cB A2AB |
"D7"c2cd e2dc | "G"(Bc)BA G2FG | "D7"(AB)AF D2EF | "G"G4- G2 :|
|: Bd |\
"G"g2g2 g2fe | "D7"f2f2 f2gf | "C"e2e2 (eg)fe | "G"e2d^c d2=cB |
"D7"c2cB A2GA | "G"(Bc)BA G2FG | "D7"(AB)AF D2EF | "G"G4- G2 :|
